Yosa-Max/places/16x16/folder-videos-symbolic.svg

<?xml version="1.0" encoding="UTF-8" standalone="no"?>
<svg
   xmlns:dc="http://purl.org/dc/elements/1.1/"
   xmlns:cc="http://creativecommons.org/ns#"
   xmlns:rdf="http://www.w3.org/1999/02/22-rdf-syntax-ns#"
   xmlns:svg="http://www.w3.org/2000/svg"
   xmlns="http://www.w3.org/2000/svg"
   xmlns:sodipodi="http://sodipodi.sourceforge.net/DTD/sodipodi-0.dtd"
   xmlns:inkscape="http://www.inkscape.org/namespaces/inkscape"
   width="16px"
   height="16px"
   viewBox="0 0 16 16"
   version="1.1"
   id="svg12"
   sodipodi:docname="folder-videos-symbolic.svg"
   inkscape:version="0.92.4 (unknown)">
  <metadata
     id="metadata16">
    <rdf:RDF>
      <cc:Work
         rdf:about="">
        <dc:format>image/svg+xml</dc:format>
        <dc:type
           rdf:resource="http://purl.org/dc/dcmitype/StillImage" />
        <dc:title>folder-videos-symbolic</dc:title>
      </cc:Work>
    </rdf:RDF>
  </metadata>
  <sodipodi:namedview
     pagecolor="#ffffff"
     bordercolor="#666666"
     borderopacity="1"
     objecttolerance="10"
     gridtolerance="10"
     guidetolerance="10"
     inkscape:pageopacity="0"
     inkscape:pageshadow="2"
     inkscape:window-width="1366"
     inkscape:window-height="709"
     id="namedview14"
     showgrid="false"
     inkscape:zoom="15.90625"
     inkscape:cx="6.8107491"
     inkscape:cy="16.16649"
     inkscape:window-x="0"
     inkscape:window-y="0"
     inkscape:window-maximized="1"
     inkscape:current-layer="svg12" />
  <!-- Generator: Sketch 42 (36781) - http://www.bohemiancoding.com/sketch -->
  <title
     id="title2">folder-videos-symbolic</title>
  <desc
     id="desc4">Created with Sketch.</desc>
  <defs
     id="defs6" />
  <path
     inkscape:connector-curvature="0"
     style="opacity:1;vector-effect:none;fill:#4d4d4d;fill-opacity:1;stroke:none;stroke-width:9.70422459;stroke-linecap:butt;stroke-linejoin:miter;stroke-miterlimit:4;stroke-dasharray:none;stroke-dashoffset:0;stroke-opacity:1"
     d="M 2,1 V 15 H 14 V 1 Z m 1,1 h 2 v 0.5 2 H 3 Z m 8,0 h 2 v 2.5 h -2 v -2 z M 3,5.5 H 5 V 5.8007812 7.5 H 3 Z m 8,0 h 2 v 2 h -2 z m -5,2 h 4 V 8.1914062 8.5 H 6 V 8.1914062 7.5917969 Z m -3,1 h 2 v 2 H 3 Z m 8,0 h 2 v 2 h -2 z m -8,3 h 2 v 2 0.5 H 3 Z m 8,0 h 2 V 14 h -2 z"
     id="path867" />
</svg>

<?xml version="1.0" encoding="UTF-8"?>
<svg id="svg12" version="1.1" viewBox="0 0 16 16" xmlns="http://www.w3.org/2000/svg">
 <title id="title2">folder-videos-symbolic</title>
 <desc id="desc4">Created with Sketch.</desc>
 <path id="path867" d="m2 1v14h12v-14zm1 1h2v2.5h-2zm8 0h2v2.5h-2v-2zm-8 3.5h2v2h-2zm8 0h2v2h-2zm-5 2h4v1h-4v-0.9082031zm-3 1h2v2h-2zm8 0h2v2h-2zm-8 3h2v2.5h-2zm8 0h2v2.5h-2z" style="fill:#4d4d4d"/>
</svg>
